**kern	**kern
*staff2	*staff1
*I"Organo-m.s.	*I"Organo-m.d.
=1-	=1-
*clefF4	*clefG2
*k[f#]	*k[f#]
*M3/8	*M3/8
4.r	8r
.	8r
.	8d
=2	=2
8G	4b
8B	.
8d	8dd
=3	=3
8D 8A	8.ccL
8A	.
.	16aJk
8c	8f#
=4	=4
8G	8.g
8B	.
.	16aLL
8d	16bJJ
.	16g
=5	=5
8BB	4.d
8D	.
8G	.
=6	=6
8C	8.eL
8E	.
.	16g#Jk
8A	8a
=7	=7
*^	*
4.A	8C	8.aL
.	8E	.
.	.	16bJk
.	8A	8cc
*v	*v	*
=8	=8
8C 8A	4cc
8A	.
8c	16ddLL
.	16ccJJ
=9	=9
!!linebreak:original
4G 4B	4b
8r	8d
=10	=10
8G	4b
8B	.
8d	8dd
=11	=11
8D 8A	8.ccL
8A	.
.	16aJk
8c	8f#
=12	=12
8G	8.g
8B	.
.	16aLL
8d	16bJJ
.	16g
=13	=13
8BB	4.d
8D	.
8G	.
=14	=14
8C	8.eL
8E	.
.	16g#Jk
8A	8a
=15	=15
*^	*
4.A	8C	8.aL
.	8E	.
.	.	16bJk
.	8A	8cc
*v	*v	*
=16	=16
8C 8A	4cc
8A	.
8c	16ddLL
.	16ccJJ
=17	=17
4G 4B	4b
8r	8d
=18	=18
8D	4a
8A	.
8d	8cc
=19	=19
!!linebreak:original
8G	4b
8B	.
8d	8g
=20	=20
8D	8b
8A	8a
8d	8g#
=21	=21
8A	8a
4D;	4d;
=22	=22
8D 8A	4cc
8A	.
8c	16aLL
.	16ccJJ
=23	=23
8G	4b
8B	.
8d	16ddLL
.	16bJJ
=24	=24
8G	4.b
8B	.
8d	.
=25	=25
4D 4d	4f# 4a
8r	8d
=26	=26
8BB 8G	8g
8D	8f#
8G	8g
=27	=27
8C	4e
8E	.
8A	8ee
=28	=28
4.C; 4.E; 4.A;	4.ee;
=29	=29
!!linebreak:original
8D	8.ddL
8G	.
.	16ccJk
8B	8b
=30	=30
8D	16ddLL
.	16ccJJ
8A	16bLL
.	16aJJ
8c	16gLL
.	16f#JJ
=31	=31
8D	4.a
8E	.
8F#	.
=32	=32
4GG 4G	4B 4g
8r	8d
=33	=33
8D	4a
8A	.
8d	8cc
=34	=34
8G	4b
8B	.
8d	8g
=35	=35
8D	8b
8A	8a
8d	8g#
=36	=36
8A	8a
4D;	4d;
=37	=37
8D 8A	4cc
8A	.
8c	16aLL
.	16ccJJ
=38	=38
8G	4b
8B	.
8d	16ddLL
.	16bJJ
=39	=39
!!linebreak:original
8G	4.b
8B	.
8d	.
=40	=40
4D 4d	4f# 4a
8r	8d
=41	=41
8BB 8G	8g
8D	8f#
8G	8g
=42	=42
8C	4e
8E	.
8A	8ee
=43	=43
4.C; 4.E; 4.A;	4.ee;
=44	=44
8D	8.ddL
8G	.
.	16ccJk
8B	8b
=45	=45
8D	16ddLL
.	16ccJJ
8A	16bLL
.	16aJJ
8c	16gLL
.	16f#JJ
=46	=46
8D	4.a
8E	.
8F#	.
=47	=47
4.GG; 4.G;	4.B; 4.g;
=48	=48
4.r	4.r
==	==
*-	*-
!!!COM: Anonim
!!!CDT: [?]
!!!OTL@@LAT: Boże którego dobroć
!!!ODT: 
!!!GTL: Przemyśl Organ Book
!!!ARL: Przemyśl Benedictine Monastery 
!!title: @{OTL}, @{GTL}, ed. @{ENC}
!!!pag:
!!!EFL: 
!!!YEM: Creative Commons CC/BY/NC/SA 4.0
!!!ENC: Marcin Konik
!!!END: 2015-03-01
!!!EED: Marcin Konik
!!!EEV: 
!!!ONB: Encoded in vim by Marcin Konik
!!!CharacterEncoding: utf-8
!!!RDF**kern: l=long note in original notation
!!!RDF**kern: i=editorial accidental
!!muse2ps: z14jc180F
